X: 42047
T: Waltz For Will And Dan
R: waltz
M: 3/4
K: Gmajor
B3c B2|A2 G2 F2|G3A G2|E2 D2 C2|
B,4 G2|CA3 AG|F3G A2|D2 d2 c2|
B3c B2|A2 G2 F2|GB4D|E2 D2 C2|
B,4 G2|CA3 AG|F3E F2|1 G4 A2:|2 G2 A2 B2||
|:c3d c2|e2 d2 c2|d2 G2 c2|B2 G2 D2|
C3D C2|E2 D2 C2|B,4 G2|D4 B2|
c3d c2|e2 d2 c2|Bg3 e2|d4 z2|
B,4 G2|CA3 AG|F3E F2|1 G2 A2 B2:|2 G6||

